icons/desktop/16/svg/bookmark-fill-16.svg

<svg width="16" height="16" viewBox="0 0 16 16" fill="none" xmlns="http://www.w3.org/2000/svg">
<path d="M8.00026 1.026C8.51617 1.02608 8.95675 1.32536 9.14772 1.8053L10.4407 5.05432L14.3352 5.30627C14.836 5.33933 15.253 5.65382 15.4251 6.12854C15.5921 6.59154 15.4763 7.08846 15.1233 7.42346C14.9093 7.62543 14.6827 7.82887 14.4397 8.03284C13.6708 8.67876 12.8391 9.251 11.9602 9.73596L12.9016 13.4342C13.0246 13.9202 12.8572 14.4115 12.4622 14.7145C12.0593 15.0253 11.5311 15.06 11.0862 14.8102C10.6182 14.5472 10.1617 14.2654 9.73171 13.9684C9.18881 13.5955 8.66308 13.1892 8.17116 12.7623C8.07116 12.6733 7.93329 12.6733 7.83229 12.7623C7.3393 13.1893 6.81276 13.5954 6.27077 13.9684C5.8399 14.2653 5.38409 14.5473 4.91725 14.8102C4.72028 14.9202 4.50811 14.9752 4.29714 14.9752L4.29421 14.9742C4.02737 14.9742 3.76326 14.8873 3.53835 14.7145C3.14341 14.4115 2.97403 13.9201 3.09792 13.4342L4.0403 9.73596C3.1613 9.25096 2.32883 8.67884 1.55983 8.03284C1.31703 7.829 1.09106 7.62531 0.877215 7.42346C0.523215 7.08746 0.407458 6.59154 0.575458 6.12854C0.747577 5.65384 1.16449 5.33926 1.6653 5.30627L5.55886 5.05432L6.85182 1.8053C7.04282 1.3253 7.48426 1.026 8.00026 1.026Z" fill="black"/>
</svg>

<!-- This Source Code Form is subject to the terms of the Mozilla Public
   - License, v. 2.0. If a copy of the MPL was not distributed with this
   - file, You can obtain one at http://mozilla.org/MPL/2.0/. -->
<svg xmlns="http://www.w3.org/2000/svg" width="16" height="16" fill="context-fill" fill-opacity="context-fill-opacity" viewBox="0 0 16 16">
    <path d="M8 1.026c.516 0 .957.3 1.148.78l1.293 3.248 3.894.252c.501.033.918.348 1.09.823a1.2 1.2 0 0 1-.302 1.294 15.508 15.508 0 0 1-3.163 2.313l.942 3.698c.123.486-.045.978-.44 1.28-.403.311-.93.346-1.376.096a17.3 17.3 0 0 1-2.915-2.048.25.25 0 0 0-.339 0 18 18 0 0 1-2.915 2.048 1.3 1.3 0 0 1-.62.165h-.003c-.267 0-.53-.088-.756-.26a1.21 1.21 0 0 1-.44-1.28l.942-3.699A15.5 15.5 0 0 1 .877 7.423 1.2 1.2 0 0 1 .575 6.13c.173-.475.59-.79 1.09-.823l3.894-.252 1.293-3.249c.19-.48.632-.779 1.148-.779" />
</svg>
